X:2031
T:Polsk
T:(Totakt-pols, nr. HJH-449)
S:efter Hans Jens Hansen,
O:Hjertinge, Ribe amt, Danmark
R:Totakt-pols
Z:ABC-transkribering av Åke Persson
M:2/4
L:1/8
Q:1/4=100
K:D
|: g | "D"f/e/f/g/ ac | "G"d2 Bd | "A"cd (e/f/e/d/) | (c/d/e/d/) Ag | "D"f/e/f/g/ ac | "G"d2 Bd | "A"cd (e/g/)(e/c/) | "D"d2 z :|
|: A | "D"FADA | "Em"GBEd | "A"cd (e/f/)(e/d/) | (c/d/)(e/c/) AG | "D"FADA | "Em"GBEd | "A"cd (e/g/)(e/c/) | "D"d2 z  :|
(:musicend:)

[[!Ackord]]
(:music:)
